packages/icons/src/svg/clock.svg

<svg xmlns="http://www.w3.org/2000/svg" viewBox="0 0 16 16">
  <g>
    <path d="M10.6793,11.6319 L10.3143,11.9969 C10.1623,12.1479 9.9173,12.1479 9.7663,11.9969 L7.2263,9.4579 C7.1533,9.3849 7.1133,9.2869 7.1133,9.1839 L7.1133,5.5899 C7.1133,5.3769 7.2853,5.2029 7.4993,5.2029 L8.0163,5.2029 C8.2303,5.2029 8.4033,5.3769 8.4033,5.5899 L8.4033,8.6469 C8.4033,8.7499 8.4443,8.8479 8.5163,8.9209 L10.6793,11.0839 C10.8303,11.2359 10.8303,11.4809 10.6793,11.6319 M7.981,3.2823 C9.472,3.2723 10.904,3.8643 11.954,4.9233 C13.021,5.9443 13.618,7.3623 13.602,8.8393 C13.618,10.3273 13.022,11.7563 11.954,12.7923 C10.904,13.8513 9.472,14.4433 7.981,14.4333 C6.488,14.4573 5.05,13.8643 4.009,12.7923 C2.951,11.7523 2.369,10.3223 2.398,8.8393 C2.369,7.3663 2.952,5.9483 4.009,4.9233 C5.05,3.8513 6.488,3.2583 7.981,3.2823 Z M7.981,1.6783 C6.062,1.6543 4.217,2.4233 2.885,3.8043 C1.503,5.1253 0.742,6.9663 0.787,8.8773 C0.742,10.7763 1.504,12.6063 2.885,13.9113 C4.231,15.2683 6.07,16.0223 7.981,16.0003 C9.893,16.0223 11.731,15.2683 13.078,13.9113 C14.444,12.5963 15.204,10.7733 15.176,8.8773 C15.204,6.9703 14.445,5.1353 13.078,3.8043 C11.746,2.4233 9.901,1.6533 7.981,1.6783 Z M12.328,0.0003 L11.278,1.1943 L14.951,4.2893 L16,3.0583 L12.328,0.0003 Z M3.672,0.0003 L1.95399252e-14,3.0583 L1.049,4.2523 L4.684,1.1943 L3.672,0.0003 Z"/>
  </g>
</svg>

<svg xmlns="http://www.w3.org/2000/svg" viewBox="0 0 16 16">
	<path d="M3.672 0L0 3.06l1.05 1.193 3.634-3.058zm8.656 0l-1.05 1.194 3.672 3.095L16 3.06 12.328 0zM7.98 1.68a6.953 6.953 0 0 0-5.096 2.126A6.795 6.795 0 0 0 .787 8.877a6.713 6.713 0 0 0 2.098 5.035A7.065 7.065 0 0 0 7.981 16a7.065 7.065 0 0 0 5.097-2.088 6.854 6.854 0 0 0 2.098-5.035 6.938 6.938 0 0 0-2.098-5.072A6.952 6.952 0 0 0 7.98 1.679zm0 1.603a5.539 5.539 0 0 1 3.972 1.641 5.341 5.341 0 0 1 1.65 3.916 5.425 5.425 0 0 1-1.65 3.953 5.538 5.538 0 0 1-3.972 1.641 5.415 5.415 0 0 1-3.972-1.64A5.39 5.39 0 0 1 2.4 8.838a5.306 5.306 0 0 1 1.61-3.916 5.415 5.415 0 0 1 3.972-1.64zM7 5v5l3 1 1-1-3-1V5z"/>
</svg>
